X:118
T:AIR LI. Good Night, and God be wi ye.
O:england
B:Joseph Mitchell: "The Highland Fair" (1731)
N:the ending (including this tune) is missing from the NLS copy
M:C|
L:1/8
K:G
BA| G2  G2   D3   G |E2G2 e3  d |(Bd)(ed) (Bd)(ed)|B2(AG) G3
e |(dB)(AG) (DE)(GD)|E2G2 e3  d |(Bd)(ed) (Bc)(ed)|B2(AG) G3||
B | A2  A2   A2 (GE)|G2GA B2 AG |(AG)(AB) (cB)(cd)|e2 A2  A2
Bd| e3   d   B3   A |G3 A B2(AG)| A2  E2   G3   A |B2 G2  G2|]


